img/icon1.svg

<svg width="81" height="63" viewBox="0 0 81 63" fill="none" xmlns="http://www.w3.org/2000/svg">
<rect width="81" height="63" fill="white"/>
<path d="M57.6497 28.6649L56.3161 8H44.8789L43.8844 24.0369L39.019 27.6987V20.1209L28.9663 27.6987V20.1209L16.9979 29.1622V54.8846H63.8316V28.6649H57.6497ZM54.5361 9.91563L54.8186 14.3797H46.3933L46.6759 9.91563H54.5361ZM45.8734 22.5169L46.269 16.301H54.943L55.751 28.6649H49.0492V20.1209L45.8734 22.5169ZM28.0622 52.9577V44.2216H36.4366V52.9577H28.0622ZM44.3364 52.9577V44.2216H52.7165V52.9577H44.3364ZM61.8934 52.9577H54.6209V42.2946H42.4265V52.9464H38.3579V42.2946H26.1522V52.9464H18.8909V30.1002L27.0281 23.9635V31.5581L37.1034 23.9635V31.5581L43.7205 26.5685L47.1562 23.9804V30.5975H61.9217L61.8934 52.9577Z" fill="#000105"/>
<path d="M80 1H1V62H80V1Z" stroke="black" stroke-width="2"/>
</svg>

<svg width="81" height="63" fill="none" xmlns="http://www.w3.org/2000/svg"><path fill="#fff" d="M0 0h81v63H0z"/><path d="M57.65 28.665L56.316 8H44.88l-.995 16.037-4.865 3.662V20.12l-10.053 7.578V20.12l-11.968 9.041v25.723h46.834v-26.22H57.65zm-3.114-18.75l.283 4.465h-8.426l.283-4.464h7.86zm-8.663 12.602l.396-6.216h8.674l.808 12.364h-6.702V20.12l-3.176 2.396zm-17.81 30.44v-8.735h8.374v8.736h-8.375zm16.273 0v-8.735h8.38v8.736h-8.38zm17.557 0h-7.272V42.296H42.426v10.651h-4.068V42.295H26.152v10.651h-7.261V30.1l8.137-6.137v7.595l10.075-7.595v7.595l6.617-4.99 3.436-2.588v6.617h14.766l-.029 22.36z" fill="#000105"/><path d="M80 1H1v61h79V1z" stroke="#000" stroke-width="2"/></svg>
